X:888
T:Triumph, The
R:Country Dance
B:The Athole Collection
M:C|
L:1/8
K:A
a|eccA dBBG|Aaag gffa|eccA dBBG|A2c2A2:|
|:z|B2e2c2e2|B2e2c2e2|BBBd ccce|c2B2A2:|
z|c2 cd e2c2|B2 Bc d2B2|cBcd eagf|edcB A2 AB|
c2 cd fedc|B2 Bc edcB|c2 cd eagf|edcB Aagf||

